public/img/telegram_white.svg

<?xml version="1.0" encoding="UTF-8"?>
<svg xmlns="http://www.w3.org/2000/svg" xmlns:xlink="http://www.w3.org/1999/xlink" viewBox="0 0 150 150" width="150px" height="150px">
<g id="surface96260392">
<path style=" stroke:none;fill-rule:nonzero;fill:rgb(100%,100%,100%);fill-opacity:1;" d="M 133.132812 17.960938 C 131.667969 18.023438 130.246094 18.429688 128.964844 18.945312 C 127.695312 19.453125 120.386719 22.574219 109.59375 27.1875 C 98.800781 31.800781 84.769531 37.8125 70.863281 43.769531 C 43.046875 55.6875 15.714844 67.410156 15.714844 67.410156 L 15.914062 67.335938 C 15.914062 67.335938 14.265625 67.886719 12.589844 69.050781 C 11.753906 69.636719 10.855469 70.386719 10.117188 71.484375 C 9.382812 72.582031 8.84375 74.136719 9.046875 75.777344 C 9.757812 81.554688 15.742188 83.191406 15.742188 83.191406 L 15.769531 83.203125 L 42.476562 92.34375 C 43.15625 94.617188 50.574219 119.378906 52.207031 124.625 C 53.109375 127.523438 53.953125 129.195312 54.832031 130.335938 C 55.273438 130.90625 55.734375 131.347656 56.246094 131.671875 C 56.445312 131.800781 56.660156 131.898438 56.871094 131.984375 C 56.875 131.984375 56.878906 131.980469 56.882812 131.984375 C 56.910156 131.992188 56.933594 131.996094 56.960938 132.007812 L 56.890625 131.988281 C 56.9375 132.007812 56.984375 132.042969 57.035156 132.058594 C 57.128906 132.09375 57.1875 132.089844 57.3125 132.117188 C 60.371094 133.183594 62.902344 131.203125 62.902344 131.203125 L 63.007812 131.121094 L 79.414062 115.90625 L 106.039062 136.664062 L 106.371094 136.816406 C 111.03125 138.886719 115.246094 137.730469 117.582031 135.832031 C 119.914062 133.933594 120.832031 131.484375 120.832031 131.484375 L 120.933594 131.226562 L 140.496094 29.257812 C 140.996094 26.972656 141.066406 25.003906 140.597656 23.222656 C 140.125 21.4375 138.976562 19.890625 137.539062 19.03125 C 136.097656 18.171875 134.59375 17.894531 133.132812 17.960938 Z M 133.289062 24.058594 C 133.882812 24.03125 134.324219 24.097656 134.460938 24.179688 C 134.597656 24.265625 134.660156 24.253906 134.796875 24.757812 C 134.929688 25.257812 135 26.316406 134.636719 27.972656 L 134.625 28.007812 L 115.171875 129.386719 C 115.125 129.488281 114.71875 130.425781 113.796875 131.179688 C 112.851562 131.949219 111.800781 132.546875 109.015625 131.378906 L 79.898438 108.671875 L 79.078125 108.027344 L 79.0625 108.046875 L 70.355469 101.511719 L 119.285156 43.945312 C 120.054688 43.042969 120.21875 41.773438 119.710938 40.707031 C 119.199219 39.636719 118.109375 38.96875 116.925781 39 C 116.359375 39.015625 115.808594 39.1875 115.335938 39.503906 L 44.53125 86.707031 L 17.785156 77.546875 C 17.785156 77.546875 15.128906 76.070312 15 75.039062 C 14.992188 74.984375 14.960938 75.035156 15.101562 74.828125 C 15.238281 74.625 15.585938 74.277344 16.019531 73.972656 C 16.890625 73.367188 17.882812 73 17.882812 73 L 17.984375 72.964844 L 18.082031 72.925781 C 18.082031 72.925781 45.417969 61.199219 73.230469 49.28125 C 87.136719 43.324219 101.164062 37.320312 111.957031 32.707031 C 122.742188 28.09375 130.539062 24.773438 131.199219 24.507812 C 131.949219 24.207031 132.695312 24.085938 133.289062 24.058594 Z M 100.839844 56.378906 L 63.734375 100.035156 L 63.714844 100.054688 C 63.65625 100.125 63.601562 100.195312 63.550781 100.269531 C 63.492188 100.351562 63.4375 100.4375 63.386719 100.523438 C 63.179688 100.878906 63.042969 101.269531 62.996094 101.675781 C 62.992188 101.683594 62.992188 101.691406 62.996094 101.699219 L 58.160156 123.4375 C 58.078125 123.203125 58.023438 123.117188 57.9375 122.839844 L 57.9375 122.835938 C 56.402344 117.902344 49.402344 94.546875 48.433594 91.320312 Z M 67.921875 107.191406 L 74.589844 112.195312 L 64.792969 121.277344 Z M 67.921875 107.191406 "/>
</g>
</svg>

<svg xmlns="http://www.w3.org/2000/svg" width="150" height="150"><path style="stroke:none;fill-rule:nonzero;fill:#fff;fill-opacity:1" d="M133.133 17.96c-1.465.063-2.887.47-4.168.985-1.27.508-8.578 3.63-19.371 8.242C98.8 31.802 84.77 37.813 70.864 43.77c-27.817 11.917-55.15 23.64-55.15 23.64l.2-.074s-1.648.55-3.324 1.715c-.836.586-1.735 1.336-2.473 2.433-.734 1.098-1.273 2.653-1.07 4.293.71 5.778 6.695 7.414 6.695 7.414l.028.012 26.707 9.14c.68 2.274 8.097 27.036 9.73 32.282.902 2.898 1.746 4.57 2.625 5.71.441.571.902 1.013 1.414 1.337.2.129.414.226.625.312.004 0 .008-.004.012 0 .027.008.05.012.078.024l-.07-.02c.047.02.093.055.144.07.094.036.153.032.278.06 3.058 1.066 5.59-.915 5.59-.915l.105-.082 16.406-15.215 26.625 20.758.332.152c4.66 2.07 8.875.914 11.211-.984 2.332-1.898 3.25-4.348 3.25-4.348l.102-.257 19.562-101.97c.5-2.284.57-4.253.102-6.034-.473-1.785-1.621-3.332-3.059-4.192-1.441-.86-2.945-1.136-4.406-1.07Zm.156 6.099c.594-.028 1.035.039 1.172.12.137.087.2.075.336.579.133.5.203 1.558-.16 3.215l-.012.035-19.453 101.379c-.047.101-.453 1.039-1.375 1.793-.945.77-1.996 1.367-4.781.199l-29.118-22.707-.82-.645-.016.02-8.707-6.535 48.93-57.567a2.999 2.999 0 0 0-3.95-4.441L44.532 86.707l-26.746-9.16S15.13 76.07 15 75.039c-.008-.055-.04-.004.102-.21.136-.204.484-.552.918-.856A9.5 9.5 0 0 1 17.883 73l.101-.035.098-.04S45.418 61.2 73.23 49.282c13.907-5.957 27.934-11.96 38.727-16.574 10.785-4.613 18.582-7.934 19.242-8.2.75-.3 1.496-.421 2.09-.448Zm-32.45 32.32-37.105 43.656-.02.02a3.51 3.51 0 0 0-.328.469 2.97 2.97 0 0 0-.39 1.152.025.025 0 0 0 0 .023l-4.836 21.739c-.082-.235-.137-.32-.222-.598v-.004c-1.536-4.934-8.536-28.29-9.504-31.516ZM67.923 107.19l6.668 5.004-9.797 9.082Zm0 0"/></svg>
